other/kid3.svg

<?xml version="1.0" encoding="UTF-8" standalone="no"?>
<svg width="48" height="48" viewBox="0 0 48 48" version="1.1" >
    <defs>
        <style>.cls-1{fill:#fff;}</style>
    </defs>
    <path
        class="cls-1"
     style="fill:#ffffff;stroke-width:1"
     d="M 10 4 C 8.892 4 8 4.892 8 6 L 8 42 C 8 43.108 8.892 44 10 44 L 38 44 C 39.108 44 40 43.108 40 42 L 40 6 C 40 4.892 39.108 4 38 4 L 10 4 z M 35.888672 6.1464844 A 2 2 0 0 1 37.888672 8.1464844 A 2 2 0 0 1 35.888672 10.146484 A 2 2 0 0 1 33.888672 8.1464844 A 2 2 0 0 1 35.888672 6.1464844 z M 19.994141 8.2792969 L 20.912109 9.5820312 C 21.452494 10.348623 22.225831 10.679432 23.03125 11.365234 C 23.836669 12.051036 24.555913 13.118971 24.753906 15.144531 L 23.757812 15.242188 C 23.577711 13.399605 23.04614 12.691767 22.382812 12.126953 C 21.984956 11.788183 21.4919 11.331054 21.011719 10.945312 L 21.025391 13.248047 L 21.048828 16.628906 L 21.091797 23.392578 L 21.050781 23.392578 A 5.2787614 3.0974548 0 0 1 15.792969 26.230469 A 5.2787614 3.0974548 0 0 1 10.513672 23.132812 A 5.2787614 3.0974548 0 0 1 15.792969 20.035156 A 5.2787614 3.0974548 0 0 1 20.078125 21.330078 L 20.048828 16.636719 L 20.025391 13.255859 L 19.994141 8.2792969 z M 12.222656 28.109375 L 28.675781 28.109375 C 29.450527 28.109375 30.074219 28.733067 30.074219 29.507812 C 30.074219 30.282558 29.450527 30.90625 28.675781 30.90625 L 12.222656 30.90625 C 11.447911 30.90625 10.824219 30.282558 10.824219 29.507812 C 10.824219 28.733067 11.447911 28.109375 12.222656 28.109375 z M 15.773438 32.552734 L 32.226562 32.552734 C 33.001308 32.552734 33.625 33.176426 33.625 33.951172 C 33.625 34.725918 33.001308 35.349609 32.226562 35.349609 L 15.773438 35.349609 C 14.998692 35.349609 14.375 34.725918 14.375 33.951172 C 14.375 33.176426 14.998692 32.552734 15.773438 32.552734 z M 12.222656 36.994141 L 28.675781 36.994141 C 29.450527 36.994141 30.074219 37.617832 30.074219 38.392578 C 30.074219 39.167324 29.450527 39.791016 28.675781 39.791016 L 12.222656 39.791016 C 11.447911 39.791016 10.824219 39.167324 10.824219 38.392578 C 10.824219 37.617832 11.447911 36.994141 12.222656 36.994141 z "
     id="rect3028" />
</svg>

<?xml version="1.0" encoding="UTF-8"?>
<svg version="1.1" viewBox="0 0 48 48" xmlns="http://www.w3.org/2000/svg">
    <defs>
        <style>.cls-1{fill:#fff;}</style>
    </defs>
    <path class="cls-1" d="m10 4c-1.108 0-2 0.892-2 2v36c0 1.108 0.892 2 2 2h28c1.108 0 2-0.892 2-2v-36c0-1.108-0.892-2-2-2h-28zm25.889 2.1465a2 2 0 0 1 2 2 2 2 0 0 1-2 2 2 2 0 0 1-2-2 2 2 0 0 1 2-2zm-15.895 2.1328 0.91797 1.3027c0.54038 0.76659 1.3137 1.0974 2.1191 1.7832s1.5247 1.7537 1.7227 3.7793l-0.99609 0.097657c-0.1801-1.8426-0.71167-2.5504-1.375-3.1152-0.39786-0.33877-0.89091-0.7959-1.3711-1.1816l0.013672 2.3027 0.023437 3.3809 0.042969 6.7637h-0.041016a5.2788 3.0975 0 0 1-5.2578 2.8379 5.2788 3.0975 0 0 1-5.2793-3.0977 5.2788 3.0975 0 0 1 5.2793-3.0977 5.2788 3.0975 0 0 1 4.2852 1.2949l-0.029297-4.6934-0.023437-3.3809-0.03125-4.9766zm-7.7715 19.83h16.453c0.77475 0 1.3984 0.62369 1.3984 1.3984 0 0.77475-0.62369 1.3984-1.3984 1.3984h-16.453c-0.77474 0-1.3984-0.62369-1.3984-1.3984 0-0.77474 0.62369-1.3984 1.3984-1.3984zm3.5508 4.4434h16.453c0.77475 0 1.3984 0.62369 1.3984 1.3984s-0.62369 1.3984-1.3984 1.3984h-16.453c-0.77475 0-1.3984-0.62369-1.3984-1.3984s0.62369-1.3984 1.3984-1.3984zm-3.5508 4.4414h16.453c0.77475 0 1.3984 0.62369 1.3984 1.3984s-0.62369 1.3984-1.3984 1.3984h-16.453c-0.77474 0-1.3984-0.62369-1.3984-1.3984s0.62369-1.3984 1.3984-1.3984z" fill="#fff"/>
</svg>
